X: 0227
T: Lord Eglinton's Reel
T: 8x32R
N: originally Earl of Eglinton's Strathspey
C: Nathaniel Gow
B: Miss Milligan's Miscellany v.2 #MMM-0227
B: Originally Ours v.1 p.183 #MMM-0227
Z: 2019 John Chambers <jc:trillian.mit.edu>
M: 4/4
L: 1/8
R: reel
K: D
%
F |\
"D"DAAF Ddfe | "D"dBAF "A7"BEEF |\
"D"DAAF Ddfd | "G"Bc"A7"de "D"fdd :|
g |\
"D"fdef "A7"ge"D"fd | "G"BAgf "A7"geeg |\
"D"fdcA "G"B/A/B/c/ dB |"A7"Aceg "D"fdd ||
g |\
"D"fd"G"Bd "D"AdAF | "G"GB"D"AF "A7"BEEF |\
"D"DF"A7"EG "D"FA"G"GB | "D"Ad"A7"ce "D"dDD |]
